X:1
T:Billy The Kid
M:3/4
L:1/4
K:D
 z2 A| A ^G A| F =G A| G/2 F3/2 G| E2 A| A ^G A| F F F| G A G| E2F/2-E/2|\
 D C D| F E D| G G A| B2 B/2B/2| A G F| A G3/2 F/2| A E3/2 F/2| D2 z|\
